libs/ui/packages/crypto-icons/src/svg/ZIL.svg

<svg width="24" height="24" viewBox="0 0 24 24" fill="none">
<path d="M6.76538 5.47686L15.1009 9.51411L17.2346 8.55261L8.93363 4.51611L6.76538 5.47686Z" fill="#49C1BF" fill-opacity="0.2"/>
<path d="M15.1009 9.50436L17.2346 8.54361V10.6924L15.1009 11.6531V9.50436ZM15.1009 19.4674V12.7646L17.2346 11.7934V18.5066L15.1009 19.4674Z" fill="#49C1BF" fill-opacity="0.5"/>
<path d="M6.76538 5.47913V7.65188L12.5351 10.4546L6.76538 13.3121V15.4541L15.1009 19.4839V17.3284L9.43988 14.5751L15.1009 11.6644V9.51563L6.76538 5.47913Z" fill="#49C1BF"/>
</svg>

<svg width="24" height="24" viewBox="0 0 24 24" fill="none"><path fill="#49c1bf" fill-opacity=".2" d="m6.765 5.477 8.336 4.037 2.134-.961-8.301-4.037z"/><path fill="#49c1bf" fill-opacity=".5" d="m15.1 9.504 2.135-.96v2.148l-2.134.961zm0 9.963v-6.702l2.135-.972v6.714z"/><path fill="#49c1bf" d="M6.765 5.48v2.172l5.77 2.803-5.77 2.857v2.142l8.336 4.03v-2.156L9.44 14.575l5.66-2.91v-2.15z"/></svg>
